src/lib/assets/images/imac-back-dark.svg

<svg width="2012" height="1695" viewBox="0 0 2012 1695" fill="none" xmlns="http://www.w3.org/2000/svg"><path d="M0 32C0 14.327 14.327 0 32 0h1948c17.67 0 32 14.327 32 32v1144H0V32Z" fill="#EFF0F2"/><path d="M0 32C0 14.327 14.327 0 32 0h1948c17.67 0 32 14.327 32 32v1314c0 17.67-14.33 32-32 32H32c-17.673 0-32-14.33-32-32V32Z" fill="url(#a)"/><path fill-rule="evenodd" clip-rule="evenodd" d="M1068.08 359s-28.46.133-48.93 27.112c-18.21 23.995-13.57 44.52-13.57 44.52s24.68 4.269 46.4-21.825c20.33-24.44 16.1-49.807 16.1-49.807Zm-43.57 84.479c-6.7 2.7-12.21 4.919-16.33 4.919-5.14 0-11.336-2.387-18.539-5.162-9.995-3.85-21.925-8.446-35.641-8.443-36.3 0-75 32.502-75 94.46 0 62.977 45.723 141.319 81.915 141.314 5.629 0 12.601-2.527 20.332-5.329 9.616-3.485 20.403-7.396 31.243-7.396 9.71 0 18.14 3.148 26.45 6.255 8.1 3.027 16.1 6.014 25.08 6.014 39.64 0 68.98-82.59 68.98-82.59s-41.98-16.251-41.98-63.407c0-41.802 33.7-59.03 33.7-59.03s-17.23-31.161-61.02-31.161c-15.48 0-28.78 5.359-39.19 9.556Z" fill="url(#b)"/><path d="M735 1683c0 6.63 5.373 12 12 12h508c6.63 0 12-5.37 12-12v-10H735v10Z" fill="#4B5563"/><path d="M735 1673h532v-8H735v8Z" fill="#374151"/><path fill-rule="evenodd" clip-rule="evenodd" d="M747 931c-6.627 0-12 5.373-12 12v722h532V943c0-6.627-5.37-12-12-12H747Zm254.5 111c-30.652 0-55.5 24.85-55.5 55.5v92c0 30.65 24.848 55.5 55.5 55.5 30.65 0 55.5-24.85 55.5-55.5v-92c0-30.65-24.85-55.5-55.5-55.5Z" fill="#4B5563"/><circle cx="1909" cy="1275" r="29" fill="#4B5563" stroke="#313A48" stroke-width="2"/><path d="M1909 1262v12m7.64-11c2.53 1.66 4.46 4.11 5.5 6.97 1.04 2.86 1.14 5.99.28 8.91-.86 2.92-2.63 5.49-5.05 7.31a13.897 13.897 0 0 1-8.37 2.81c-3.02 0-5.96-.99-8.37-2.81a14.143 14.143 0 0 1-5.05-7.31c-.86-2.92-.76-6.05.28-8.91 1.04-2.86 2.97-5.31 5.5-6.97" stroke="#6C7889" stroke-width="4" stroke-linecap="round" stroke-linejoin="round"/><defs><linearGradient id="a" x1="1006" y1="0" x2="1006" y2="1378" gradientUnits="userSpaceOnUse"><stop stop-color="#374151"/><stop offset=".494" stop-color="#374151"/><stop offset="1" stop-color="#2F3844"/></linearGradient><linearGradient id="b" x1="1006" y1="359" x2="1006" y2="670.567" gradientUnits="userSpaceOnUse"><stop stop-color="#4B5563"/><stop offset="1" stop-color="#4B5563"/></linearGradient></defs></svg>

<svg width="2012" height="1695" viewBox="0 0 2012 1695" fill="none" xmlns="http://www.w3.org/2000/svg">
<path d="M0 32C0 14.3269 14.3269 0 32 0H1980C1997.67 0 2012 14.3269 2012 32V1176H0V32Z" fill="#EFF0F2"/>
<path d="M0 32C0 14.3269 14.3269 0 32 0H1980C1997.67 0 2012 14.3269 2012 32V1346C2012 1363.67 1997.67 1378 1980 1378H31.9999C14.3268 1378 0 1363.67 0 1346V32Z" fill="url(#paint0_linear_5013_12424)"/>
<path fill-rule="evenodd" clip-rule="evenodd" d="M1068.08 359C1068.08 359 1039.62 359.133 1019.15 386.112C1000.94 410.107 1005.58 430.632 1005.58 430.632C1005.58 430.632 1030.26 434.901 1051.98 408.807C1072.31 384.367 1068.08 359 1068.08 359ZM1024.51 443.479C1017.81 446.179 1012.3 448.398 1008.18 448.398C1003.04 448.398 996.844 446.011 989.641 443.236C979.646 439.386 967.716 434.79 954 434.793C917.7 434.793 879 467.295 879 529.253C879 592.23 924.723 670.572 960.915 670.567C966.544 670.567 973.516 668.04 981.247 665.238C990.863 661.753 1001.65 657.842 1012.49 657.842C1022.2 657.842 1030.63 660.99 1038.94 664.097C1047.04 667.124 1055.04 670.111 1064.02 670.111C1103.66 670.111 1133 587.521 1133 587.521C1133 587.521 1091.02 571.27 1091.02 524.114C1091.02 482.312 1124.72 465.084 1124.72 465.084C1124.72 465.084 1107.49 433.923 1063.7 433.923C1048.22 433.923 1034.92 439.282 1024.51 443.479Z" fill="url(#paint1_linear_5013_12424)"/>
<path d="M735 1683C735 1689.63 740.373 1695 747 1695H1255C1261.63 1695 1267 1689.63 1267 1683V1673H735V1683Z" fill="#4B5563"/>
<path d="M735 1673H1267V1665H735V1673Z" fill="#374151"/>
<path fill-rule="evenodd" clip-rule="evenodd" d="M747 931C740.373 931 735 936.373 735 943V1665H1267V943C1267 936.373 1261.63 931 1255 931H747ZM1001.5 1042C970.848 1042 946 1066.85 946 1097.5V1189.5C946 1220.15 970.848 1245 1001.5 1245C1032.15 1245 1057 1220.15 1057 1189.5V1097.5C1057 1066.85 1032.15 1042 1001.5 1042Z" fill="#4B5563"/>
<circle cx="1909" cy="1275" r="29" fill="#4B5563" stroke="#313A48" stroke-width="2"/>
<path d="M1909 1262V1274" stroke="#6C7889" stroke-width="4" stroke-linecap="round" stroke-linejoin="round"/>
<path d="M1916.64 1263C1919.17 1264.66 1921.1 1267.11 1922.14 1269.97C1923.18 1272.83 1923.28 1275.96 1922.42 1278.88C1921.56 1281.8 1919.79 1284.37 1917.37 1286.19C1914.96 1288.01 1912.02 1289 1909 1289C1905.98 1289 1903.04 1288.01 1900.63 1286.19C1898.21 1284.37 1896.44 1281.8 1895.58 1278.88C1894.72 1275.96 1894.82 1272.83 1895.86 1269.97C1896.9 1267.11 1898.83 1264.66 1901.36 1263" stroke="#6C7889" stroke-width="4" stroke-linecap="round" stroke-linejoin="round"/>
<defs>
<linearGradient id="paint0_linear_5013_12424" x1="1006" y1="0" x2="1006" y2="1378" gradientUnits="userSpaceOnUse">
<stop stop-color="#374151"/>
<stop offset="0.494392" stop-color="#374151"/>
<stop offset="1" stop-color="#2F3844"/>
</linearGradient>
<linearGradient id="paint1_linear_5013_12424" x1="1006" y1="359" x2="1006" y2="670.567" gradientUnits="userSpaceOnUse">
<stop stop-color="#4B5563"/>
<stop offset="1" stop-color="#4B5563"/>
</linearGradient>
</defs>
</svg>
